packages/core/src/svgs/wagmigames.svg

<svg width="24" height="24" viewBox="0 0 24 24" fill="none" xmlns="http://www.w3.org/2000/svg">
<g clip-path="url(#clip0_31_20578)">
<path d="M0 0H24V24H0V0Z" fill="url(#paint0_linear_31_20578)"/>
<path fill-rule="evenodd" clip-rule="evenodd" d="M12.0001 19.2858C13.9324 19.2858 15.7855 18.5182 17.1518 17.1518C18.5182 15.7855 19.2858 13.9324 19.2858 12.0001C19.2858 10.0678 18.5182 8.21463 17.1518 6.84829C15.7855 5.48196 13.9324 4.71436 12.0001 4.71436C10.0678 4.71436 8.21463 5.48196 6.84829 6.84829C5.48196 8.21463 4.71436 10.0678 4.71436 12.0001C4.71436 13.9324 5.48196 15.7855 6.84829 17.1518C8.21463 18.5182 10.0678 19.2858 12.0001 19.2858ZM12.0001 18.4286C13.705 18.4286 15.3402 17.7513 16.5458 16.5458C17.7513 15.3402 18.4286 13.705 18.4286 12.0001C18.4286 10.2951 17.7513 8.65997 16.5458 7.45438C15.3402 6.24879 13.705 5.5715 12.0001 5.5715C10.2951 5.5715 8.65997 6.24879 7.45438 7.45438C6.24879 8.65997 5.5715 10.2951 5.5715 12.0001C5.5715 13.705 6.24879 15.3402 7.45438 16.5458C8.65997 17.7513 10.2951 18.4286 12.0001 18.4286Z" fill="#00D8FF"/>
<path d="M8.2585 10.2856H7.28564L9.58279 15.4285H10.2856L12.0128 11.5071L13.7014 15.4285H14.4685L16.7142 10.2856H15.7971L14.0828 14.1856L12.3856 10.2856H11.6571L9.91279 14.1856L8.25422 10.2856H8.2585Z" fill="white"/>
<path d="M7.28564 9V9.42857H10.6156L10.8899 9.19714H16.7142V9H7.28564Z" fill="#FD124D"/>
</g>
<defs>
<linearGradient id="paint0_linear_31_20578" x1="4.46571" y1="4.16143" x2="29.2071" y2="32.58" gradientUnits="userSpaceOnUse">
<stop stop-color="#1A1E21"/>
<stop offset="1" stop-color="#06060A"/>
</linearGradient>
<clipPath id="clip0_31_20578">
<rect width="24" height="24" fill="white"/>
</clipPath>
</defs>
</svg>

<svg xmlns="http://www.w3.org/2000/svg" width="24" height="24" fill="none" viewBox="0 0 24 24"><g clip-path="url(#a)"><path fill="url(#b)" d="M0 0h24v24H0z"/><path fill="#00D8FF" fill-rule="evenodd" d="M12 19.286a7.285 7.285 0 1 0 0-14.57 7.285 7.285 0 0 0 0 14.57m0-.857A6.429 6.429 0 1 0 12 5.57a6.429 6.429 0 0 0 0 12.858" clip-rule="evenodd"/><path fill="#fff" d="M8.259 10.286h-.973l2.297 5.143h.703l1.727-3.922L13.7 15.43h.768l2.245-5.143h-.917l-1.714 3.9-1.697-3.9h-.729l-1.744 3.9-1.659-3.9z"/><path fill="#FD124D" d="M7.286 9v.429h3.33l.274-.232h5.824V9z"/></g><defs><linearGradient id="b" x1="4.466" x2="29.207" y1="4.161" y2="32.58" gradientUnits="userSpaceOnUse"><stop stop-color="#1A1E21"/><stop offset="1" stop-color="#06060A"/></linearGradient><clipPath id="a"><path fill="#fff" d="M0 0h24v24H0z"/></clipPath></defs></svg>
